X: 3071
T: HAUD AWA' FRAE ME DONALD
Q:"Strathspey."
R: Strathspey.
%R:strathspey
B: James Kerr "Merry Melodies" v.3 p.10 #71
Z: 2016 John Chambers <jc:trillian.mit.edu>
M: C
L: 1/8
K: G
|:\
vG<(E G2) (D<B,) D2 | (G<E) G<A B2 (A<B) |\
(G<E) G2 (D<B,) D2 | (G<E) G>A B2 (A<G) :|
|:\
A>Bd>e d<B A<G | A>Bd>e B2(A<G) |\
A>Bd>e d<B A<B |[1 (G<E) G>A B2 (A>G) :|\
[2 (G<E) G>A B2 (A>B) |]

%%sep 1 1 500
%%sep 1 1 500

